communes/5743.svg

<?xml version="1.0" encoding="UTF-8"?>
<svg version="1.0" viewBox="0 0 603 763" xmlns="http://www.w3.org/2000/svg" xmlns:cc="http://creativecommons.org/ns#" xmlns:dc="http://purl.org/dc/elements/1.1/" xmlns:rdf="http://www.w3.org/1999/02/22-rdf-syntax-ns#" xmlns:xlink="http://www.w3.org/1999/xlink">
<metadata>
<rdf:RDF>
<cc:Work rdf:about="">
<dc:format>image/svg+xml</dc:format>
<dc:type rdf:resource="http://purl.org/dc/dcmitype/StillImage"/>
<dc:date>07-AUG-2006</dc:date>
<dc:creator>
<cc:Agent>
<dc:title>Jérôme BLUM (wagner51)</dc:title>
</cc:Agent>
</dc:creator>
<cc:license rdf:resource="http://creativecommons.org/licenses/GPL/2.0/"/>
<dc:coverage/>
<dc:description>Gabarit pour le Projet:Blasons de WIkipédia</dc:description>
<dc:subject>
<rdf:Bag>
<rdf:li>blason suisse modèle gabarit projet blasons</rdf:li>
</rdf:Bag>
</dc:subject>
<dc:language>fr</dc:language>
<dc:title>Gabrit d'un blason suisse</dc:title>
</cc:Work>
<cc:License rdf:about="http://creativecommons.org/licenses/GPL/2.0/">
<cc:permits rdf:resource="http://web.resource.org/cc/Reproduction"/>
<cc:permits rdf:resource="http://web.resource.org/cc/Distribution"/>
<cc:requires rdf:resource="http://web.resource.org/cc/Notice"/>
<cc:permits rdf:resource="http://web.resource.org/cc/DerivativeWorks"/>
<cc:requires rdf:resource="http://web.resource.org/cc/ShareAlike"/>
<cc:requires rdf:resource="http://web.resource.org/cc/SourceCode"/>
</cc:License>
</rdf:RDF>
</metadata>
<defs>
<radialGradient id="a" cx="858.04" cy="579.93" r="300" gradientTransform="matrix(1.215 1.5316e-24 1.4647e-23 1.2667 -839.19 -490.49)" gradientUnits="userSpaceOnUse">
<stop stop-color="#fff" stop-opacity=".31373" offset="0"/>
<stop stop-color="#fff" stop-opacity=".25098" offset=".19"/>
<stop stop-color="#6b6b6b" stop-opacity=".12549" offset=".6"/>
<stop stop-opacity=".12549" offset="1"/>
</radialGradient>
</defs>
<desc>Coat of Arms of Canton of Freiburg (Fribourg)</desc>
<g>
<path d="m1.5 1.5v458.87c0 166.31 134.31 301.13 300 301.13 165.69 0 300-134.82 300-301.13v-458.87h-600z" fill="#fff"/>
</g>
<g>
<path d="m244.38 1.5v299.06h-242.88v116h242.88v339.44c18.497 3.58 37.587 5.5 57.125 5.5 20.162 0 39.86-2.006 58.906-5.813v-339.12h241.09v-116h-241.1v-299.06h-116.03z"/>
<path d="m601.5 300.56h-241.1v-299.06" fill="none" stroke="#000" stroke-linecap="round" stroke-linejoin="round" stroke-width="3"/>
<path d="m360.4 755.69v-339.12h241.1" fill="none" stroke="#000" stroke-linecap="round" stroke-linejoin="round" stroke-width="3"/>
<path d="m1.5 416.56h242.88v339.44" fill="none" stroke="#000" stroke-linecap="round" stroke-linejoin="round" stroke-width="3"/>
<path d="m244.38 1.5v299.06h-242.88" fill="none" stroke="#000" stroke-linecap="round" stroke-linejoin="round" stroke-width="3"/>
<g stroke="#000" stroke-linecap="round" stroke-linejoin="round" stroke-width="3">
<g fill="#e20909">
<polygon transform="translate(-.038 -.045)" points="442.47 266.93 455.32 250.7 470.67 262.85 494.28 233.03 478.93 220.87 491.78 204.65 507.13 216.8 527.27 191.36 508.19 176.26 498.47 188.54 487.94 180.2 497.66 167.92 488.89 160.98 473.44 180.5 461.82 171.29 440.98 197.61 456.99 210.28 439.98 231.78 423.97 219.1 403.13 245.42 414.76 254.62 399.3 274.14 408.08 281.08 417.8 268.8 428.32 277.13 418.6 289.42 437.68 304.52 457.82 279.08"/>
<path d="m476.27 135.63c-6.587-5.216-15.507-4.929-19.918 0.642l-256.61 324.13 23.86 18.89 256.61-324.13c4.409-5.573 2.642-14.318-3.946-19.534z"/>
<path d="m207.35 475.32-107.19 12.459 12.461 107.19 107.19-12.463-12.462-107.18zm-37.386 85.47c-5.39-4.268-3.403-9.001-7.978-8.471-4.577 0.532-1.559 4.683-5.826 10.074-4.77 6.025-13.522 7.045-19.546 2.274-6.024-4.772-7.042-13.522-2.272-19.549 4.267-5.389 9-3.406 8.468-7.98-0.532-4.575-4.683-1.556-10.074-5.823-6.025-4.769-7.042-13.521-2.272-19.546 4.77-6.024 13.521-7.041 19.546-2.271 5.39 4.268 3.404 9.001 7.979 8.468 4.573-0.532 1.558-4.683 5.825-10.071 4.77-6.025 13.521-7.043 19.546-2.273s7.042 13.521 2.273 19.546c-4.268 5.392-9.002 3.407-8.468 7.979 0.531 4.576 4.683 1.558 10.073 5.825 6.024 4.77 7.042 13.518 2.273 19.544-4.771 6.025-13.522 7.043-19.547 2.274z"/>
<path d="m120.56 600.24c1.61-2.032 1.269-4.985-0.767-6.594l-7.529-5.964c-2.034-1.609-4.986-1.265-6.596 0.769l-2.738 3.458c-1.611 2.034-0.4 5.673 1.633 7.283l5.796 4.588c2.034 1.611 5.852 1.954 7.462-0.079l2.739-3.461z"/>
<path d="m129.77 600.84c1.61-2.032 1.266-4.985-0.768-6.596l-19.433-15.386c-2.033-1.609-4.986-1.268-6.595 0.767l-1.711 2.163c-1.609 2.03-1.267 4.985 0.766 6.595l19.435 15.386c2.033 1.609 4.986 1.266 6.595-0.767l1.711-2.162z"/>
<path d="m225.08 574.56c-2.033-1.609-4.987-1.267-6.595 0.766l-5.962 7.531c-1.61 2.033-1.266 4.985 0.767 6.596l3.459 2.736c2.034 1.61 5.671 0.403 7.281-1.63l4.591-5.801c1.61-2.032 1.951-5.85-0.082-7.459l-3.459-2.739z"/>
<path d="m225.68 565.35c-2.033-1.608-4.985-1.267-6.596 0.768l-15.385 19.433c-1.611 2.035-1.267 4.985 0.768 6.595l2.16 1.711c2.034 1.61 4.987 1.268 6.596-0.766l15.386-19.435c1.61-2.032 1.267-4.984-0.767-6.596l-2.162-1.71z"/>
<path d="m106.68 480.83c2.033 1.608 2.376 4.562 0.768 6.596l-5.963 7.529c-1.609 2.034-4.562 2.375-6.595 0.767l-3.46-2.739c-2.032-1.608-1.691-5.428-0.082-7.461l4.59-5.799c1.611-2.033 5.249-3.243 7.281-1.632l3.461 2.739z"/>
<path d="m115.51 478.13c2.034 1.611 2.376 4.563 0.767 6.597l-15.385 19.435c-1.611 2.032-4.563 2.376-6.596 0.767l-2.162-1.711c-2.033-1.609-2.376-4.563-0.767-6.596l15.387-19.433c1.608-2.035 4.561-2.378 6.595-0.77l2.161 1.711z"/>
<path d="m233.41 477.96c1.631-2.06 1.283-5.051-0.777-6.684l-27.146-21.492c-2.06-1.631-5.052-1.281-6.684 0.778l-0.69 0.873c-1.631 2.062-1.283 5.054 0.776 6.684l27.147 21.492c2.06 1.631 5.052 1.283 6.683-0.775l0.691-0.876z"/>
<path d="m228.89 487.94c1.631-2.06 1.284-5.051-0.777-6.682l-31.315-24.79c-2.059-1.632-5.05-1.285-6.683 0.775l-3.779 4.776c-1.631 2.06-1.283 5.051 0.777 6.682l31.314 24.791c2.06 1.63 5.052 1.283 6.683-0.775l3.78-4.777z"/>
<path d="m216.43 499.4c-1.63 2.061-4.623 2.408-6.683 0.777l-27.146-21.494c-2.06-1.629-2.409-4.621-0.778-6.682l0.692-0.874c1.63-2.059 4.624-2.406 6.682-0.775l27.147 21.49c2.061 1.634 2.409 4.623 0.777 6.684l-0.691 0.874z"/>
</g>
<path d="m122.76 133.99c-12.692-13.453-26.241-19.933-26.972-19.322-0.731 0.609 3.229 15.098 14.203 29.985 10.973 14.889 270.01 339.36 293.2 367.12l28.513-23.809c-23.187-27.766-296.25-340.52-308.94-353.98z" fill="#e20909"/>
<path d="m418.32 500.91-14.372 16.069c14.823 17.748 49.619 53.312 69.952 68.644l17.861-14.915c-11.458-22.741-40.244-63.323-55.066-81.074l-18.375 11.276z" fill="#e20909"/>
<circle transform="translate(-.038 -.045)" cx="492.19" cy="589.38" r="10.741" fill="#e20909"/>
<path d="m491.54 563.03-25.163 21.01 4.996 5.979c1.635 1.965 4.48 2.284 6.355 0.72l18.376-15.346c1.874-1.565 2.068-4.421 0.429-6.383l-4.993-5.98z" fill="#e20909"/>
<path d="m472.29 459.67c-2.244 1.872-3.169 4.736-2.683 7.421-13.616 3-39.393 10.766-57.739 26.089-18.351 15.319-30.591 39.297-35.971 52.163-2.553-0.961-5.536-0.563-7.779 1.312-3.32 2.772-3.765 7.713-0.991 11.032 2.771 3.318 7.712 3.763 11.03 0.991 1.824-1.522 2.771-3.695 2.806-5.899 0.419-4.633 11.961-25.379 39.959-48.757 27.996-23.379 50.469-31.038 55.103-30.621 2.172 0.361 4.481-0.187 6.304-1.71 3.32-2.77 3.766-7.709 0.993-11.028-2.774-3.323-7.711-3.766-11.032-0.993z" fill="#e20909"/>
<line x1="114.35" x2="381.74" y1="136.89" y2="457.11" fill="none"/>
<polyline transform="translate(-.038 -.045)" points="403.9 455.64 381.78 457.16 376.34 478.65" fill="none"/>
</g>
</g>
<g>
<path d="m1.5 1.5v458.87c0 166.31 134.31 301.13 300 301.13 165.69 0 300-134.82 300-301.13v-458.87h-600z" fill="url(#a)"/>
<path d="m1.5 1.5v458.87c0 166.31 134.31 301.13 300 301.13 165.69 0 300-134.82 300-301.13v-458.87h-600z" fill="none" stroke="#000" stroke-width="3"/>
</g>
</svg>

<?xml version="1.0" encoding="UTF-8" standalone="no"?>
<svg
   xmlns:dc="http://purl.org/dc/elements/1.1/"
   xmlns:cc="http://creativecommons.org/ns#"
   xmlns:rdf="http://www.w3.org/1999/02/22-rdf-syntax-ns#"
   xmlns:svg="http://www.w3.org/2000/svg"
   xmlns="http://www.w3.org/2000/svg"
   xmlns:xlink="http://www.w3.org/1999/xlink"
   xmlns:sodipodi="http://sodipodi.sourceforge.net/DTD/sodipodi-0.dtd"
   xmlns:inkscape="http://www.inkscape.org/namespaces/inkscape"
   height="763"
   width="603"
   version="1.0"
   id="svg20"
   sodipodi:version="0.32"
   inkscape:version="0.46"
   sodipodi:docname="Arnex-sur-Orbe-coat_of_arms.svg"
   sodipodi:docbase="C:\Documents and Settings\Steve\Bureau\Blason Villages Suisse pour Wikipédia (par Delta-9)"
   inkscape:output_extension="org.inkscape.output.svg.inkscape">
  <metadata
     id="metadata31">
    <rdf:RDF>
      <cc:Work
         rdf:about="">
        <dc:format>image/svg+xml</dc:format>
        <dc:type
           rdf:resource="http://purl.org/dc/dcmitype/StillImage" />
        <dc:date>07-AUG-2006</dc:date>
        <dc:creator>
          <cc:Agent>
            <dc:title>Jérôme BLUM (wagner51)</dc:title>
          </cc:Agent>
        </dc:creator>
        <cc:license
           rdf:resource="http://creativecommons.org/licenses/GPL/2.0/" />
        <dc:coverage />
        <dc:description>Gabarit pour le Projet:Blasons de WIkipédia</dc:description>
        <dc:subject>
          <rdf:Bag>
            <rdf:li>blason suisse modèle gabarit projet blasons</rdf:li>
          </rdf:Bag>
        </dc:subject>
        <dc:language>fr</dc:language>
        <dc:title>Gabrit d'un blason suisse</dc:title>
      </cc:Work>
      <cc:License
         rdf:about="http://creativecommons.org/licenses/GPL/2.0/">
        <cc:permits
           rdf:resource="http://web.resource.org/cc/Reproduction" />
        <cc:permits
           rdf:resource="http://web.resource.org/cc/Distribution" />
        <cc:requires
           rdf:resource="http://web.resource.org/cc/Notice" />
        <cc:permits
           rdf:resource="http://web.resource.org/cc/DerivativeWorks" />
        <cc:requires
           rdf:resource="http://web.resource.org/cc/ShareAlike" />
        <cc:requires
           rdf:resource="http://web.resource.org/cc/SourceCode" />
      </cc:License>
    </rdf:RDF>
  </metadata>
  <defs
     id="defs29"><inkscape:perspective
   sodipodi:type="inkscape:persp3d"
   inkscape:vp_x="0 : 381.5 : 1"
   inkscape:vp_y="0 : 1000 : 0"
   inkscape:vp_z="603 : 381.5 : 1"
   inkscape:persp3d-origin="301.5 : 254.33333 : 1"
   id="perspective28" />
<linearGradient
   id="linearGradient2893">
  <stop
     style="stop-color:#ffffff;stop-opacity:0.3137255;"
     offset="0"
     id="stop2895" />
  <stop
     id="stop2897"
     offset="0.19"
     style="stop-color:#ffffff;stop-opacity:0.25098041;" />
  <stop
     style="stop-color:#6b6b6b;stop-opacity:0.1254902;"
     offset="0.60000002"
     id="stop2901" />
  <stop
     style="stop-color:#000000;stop-opacity:0.1254902;"
     offset="1"
     id="stop2899" />
</linearGradient>
<linearGradient
   id="linearGradient2955">
  <stop
     style="stop-color:white;stop-opacity:0;"
     offset="0"
     id="stop2965" />
  <stop
     style="stop-color:black;stop-opacity:0.64583331;"
     offset="1"
     id="stop2959" />
</linearGradient>
<radialGradient
   inkscape:collect="always"
   xlink:href="#linearGradient2893"
   id="radialGradient3236"
   gradientUnits="userSpaceOnUse"
   gradientTransform="matrix(1.215027,1.531577e-24,1.464684e-23,1.266667,-839.1924,-490.4894)"
   cx="858.04236"
   cy="579.93323"
   fx="858.04236"
   fy="579.93323"
   r="300" />
<inkscape:perspective
   id="perspective2590"
   inkscape:persp3d-origin="297.63751 : 280.63 : 1"
   inkscape:vp_z="595.27502 : 420.94501 : 1"
   inkscape:vp_y="0 : 1000 : 0"
   inkscape:vp_x="0 : 420.94501 : 1"
   sodipodi:type="inkscape:persp3d" />

	
	

	

		
		
	
		
		
		
		
		
	
			
			
			
				
			
			
			
		
			
			
			
			
		
				
				
				
			
				
				
			
				
					
				
			
					
					
					
				
						
						
					
						
						
					
						
						
					</defs>
  <sodipodi:namedview
     inkscape:window-height="968"
     inkscape:window-width="1280"
     inkscape:pageshadow="2"
     inkscape:pageopacity="0.0"
     guidetolerance="10.0"
     gridtolerance="10.0"
     objecttolerance="10.0"
     borderopacity="1.0"
     bordercolor="#666666"
     pagecolor="#ffffff"
     id="base"
     inkscape:zoom="0.89483034"
     inkscape:cx="300.57711"
     inkscape:cy="375.72139"
     inkscape:window-x="1280"
     inkscape:window-y="22"
     inkscape:current-layer="layer2"
     showgrid="false"
     showguides="true"
     inkscape:guide-bbox="true">
    <sodipodi:guide
       orientation="horizontal"
       position="761.5"
       id="guide1885" />
    <sodipodi:guide
       orientation="vertical"
       position="1.5"
       id="guide1887" />
    <sodipodi:guide
       orientation="horizontal"
       position="1.5"
       id="guide1889" />
    <sodipodi:guide
       orientation="vertical"
       position="601.5"
       id="guide1891" />
    <sodipodi:guide
       orientation="vertical"
       position="301.50081"
       id="guide1893" />
  </sodipodi:namedview>
  <desc
     id="desc22">Coat of Arms of Canton of Freiburg (Fribourg)</desc>
  <g
     inkscape:groupmode="layer"
     id="layer1"
     inkscape:label="Fond écu"
     style="opacity:1"
     sodipodi:insensitive="true">
    <path
       id="path1899"
       d="M 1.5,1.49998 L 1.5,460.3679 C 1.5,626.6785 135.81456,761.5 301.49999,761.5 C 467.18543,761.5 601.5,626.6785 601.5,460.3679 L 601.5,1.49998 L 1.5,1.49998 z"
       style="fill:#ffffff;fill-opacity:1" />
  </g>
  <g
     inkscape:groupmode="layer"
     id="layer2"
     inkscape:label="Meubles"
     style="opacity:1;display:inline"
     sodipodi:insensitive="true">
    <path
       id="path3774"
       d="M 244.375,1.5 L 244.375,300.563 L 1.5,300.563 L 1.5,416.563 L 244.375,416.563 L 244.375,756 C 262.872,759.58 281.962,761.5 301.5,761.5 C 321.662,761.5 341.36,759.494 360.406,755.687 L 360.406,416.562 L 601.5,416.562 L 601.5,300.562 L 360.403,300.562 L 360.403,1.5 L 244.375,1.5 z" />
    <path
       style="fill:none;stroke:#000000;stroke-width:3;stroke-linecap:round;stroke-linejoin:round"
       id="path3774_7_"
       d="M 601.499,300.562 L 360.403,300.562 L 360.403,1.5" />
    <path
       style="fill:none;stroke:#000000;stroke-width:3;stroke-linecap:round;stroke-linejoin:round"
       id="path3774_6_"
       d="M 360.403,755.687 L 360.403,416.562 L 601.499,416.562" />
    <path
       style="fill:none;stroke:#000000;stroke-width:3;stroke-linecap:round;stroke-linejoin:round"
       id="path3774_5_"
       d="M 1.5,416.562 L 244.375,416.562 L 244.375,756" />
    <path
       style="fill:none;stroke:#000000;stroke-width:3;stroke-linecap:round;stroke-linejoin:round"
       id="path3774_4_"
       d="M 244.375,1.5 L 244.375,300.563 L 1.5,300.563" />
    <g
       id="g2831">
      <g
         id="g2817">
        <polygon
           id="polygon2531"
           points="442.468,266.928 455.318,250.7 470.668,262.852 494.281,233.028 478.93,220.874 491.778,204.646 507.129,216.8 527.271,191.36 508.19,176.255 498.467,188.536 487.941,180.203 497.663,167.921 488.891,160.977 473.439,180.495 461.815,171.292 440.98,197.609 456.99,210.284 439.978,231.775 423.966,219.101 403.133,245.418 414.755,254.619 399.303,274.136 408.076,281.082 417.798,268.8 428.323,277.134 418.602,289.415 437.683,304.52 457.821,279.081 442.468,266.928 "
           style="fill:#e20909;stroke:#000000;stroke-width:3;stroke-linecap:round;stroke-linejoin:round"
           transform="translate(-3.8e-2,-4.5e-2)" />
        <path
           id="path2533"
           d="M 476.274,135.633 C 469.687,130.417 460.767,130.704 456.356,136.275 L 199.747,460.404 L 223.607,479.294 L 480.22,155.167 C 484.629,149.594 482.862,140.849 476.274,135.633 z"
           style="fill:#e20909;stroke:#000000;stroke-width:3;stroke-linecap:round;stroke-linejoin:round" />
        <path
           style="fill:#e20909;stroke:#000000;stroke-width:3;stroke-linecap:round;stroke-linejoin:round"
           d="M 207.348,475.319 L 100.161,487.778 L 112.622,594.967 L 219.81,582.504 L 207.348,475.319 z M 169.962,560.789 C 164.572,556.521 166.559,551.788 161.984,552.318 C 157.407,552.85 160.425,557.001 156.158,562.392 C 151.388,568.417 142.636,569.437 136.612,564.666 C 130.588,559.894 129.57,551.144 134.34,545.117 C 138.607,539.728 143.34,541.711 142.808,537.137 C 142.276,532.562 138.125,535.581 132.734,531.314 C 126.709,526.545 125.692,517.793 130.462,511.768 C 135.232,505.744 143.983,504.727 150.008,509.497 C 155.398,513.765 153.412,518.498 157.987,517.965 C 162.56,517.433 159.545,513.282 163.812,507.894 C 168.582,501.869 177.333,500.851 183.358,505.621 C 189.383,510.391 190.4,519.142 185.631,525.167 C 181.363,530.559 176.629,528.574 177.163,533.146 C 177.694,537.722 181.846,534.704 187.236,538.971 C 193.26,543.741 194.278,552.489 189.509,558.515 C 184.738,564.54 175.987,565.558 169.962,560.789 z"
           id="path2537" />
        <path
           style="fill:#e20909;stroke:#000000;stroke-width:3;stroke-linecap:round;stroke-linejoin:round"
           d="M 120.563,600.235 C 122.173,598.203 121.832,595.25 119.796,593.641 L 112.267,587.677 C 110.233,586.068 107.281,586.412 105.671,588.446 L 102.933,591.904 C 101.322,593.938 102.533,597.577 104.566,599.187 L 110.362,603.775 C 112.396,605.386 116.214,605.729 117.824,603.696 L 120.563,600.235 z"
           id="path2543" />
        <path
           style="fill:#e20909;stroke:#000000;stroke-width:3;stroke-linecap:round;stroke-linejoin:round"
           d="M 129.772,600.835 C 131.382,598.803 131.038,595.85 129.004,594.239 L 109.571,578.853 C 107.538,577.244 104.585,577.585 102.976,579.62 L 101.265,581.783 C 99.656,583.813 99.998,586.768 102.031,588.378 L 121.466,603.764 C 123.499,605.373 126.452,605.03 128.061,602.997 L 129.772,600.835 z"
           id="path2545" />
        <path
           style="fill:#e20909;stroke:#000000;stroke-width:3;stroke-linecap:round;stroke-linejoin:round"
           d="M 225.079,574.563 C 223.046,572.954 220.092,573.296 218.484,575.329 L 212.522,582.86 C 210.912,584.893 211.256,587.845 213.289,589.456 L 216.748,592.192 C 218.782,593.802 222.419,592.595 224.029,590.562 L 228.62,584.761 C 230.23,582.729 230.571,578.911 228.538,577.302 L 225.079,574.563 z"
           id="path2549" />
        <path
           style="fill:#e20909;stroke:#000000;stroke-width:3;stroke-linecap:round;stroke-linejoin:round"
           d="M 225.678,565.354 C 223.645,563.746 220.693,564.087 219.082,566.122 L 203.697,585.555 C 202.086,587.59 202.43,590.54 204.465,592.15 L 206.625,593.861 C 208.659,595.471 211.612,595.129 213.221,593.095 L 228.607,573.66 C 230.217,571.628 229.874,568.676 227.84,567.064 L 225.678,565.354 z"
           id="path2551" />
        <path
           style="fill:#e20909;stroke:#000000;stroke-width:3;stroke-linecap:round;stroke-linejoin:round"
           d="M 106.682,480.83 C 108.715,482.438 109.058,485.392 107.45,487.426 L 101.487,494.955 C 99.878,496.989 96.925,497.33 94.892,495.722 L 91.432,492.983 C 89.4,491.375 89.741,487.555 91.35,485.522 L 95.94,479.723 C 97.551,477.69 101.189,476.48 103.221,478.091 L 106.682,480.83 z"
           id="path2555" />
        <path
           style="fill:#e20909;stroke:#000000;stroke-width:3;stroke-linecap:round;stroke-linejoin:round"
           d="M 115.507,478.131 C 117.541,479.742 117.883,482.694 116.274,484.728 L 100.889,504.163 C 99.278,506.195 96.326,506.539 94.293,504.93 L 92.131,503.219 C 90.098,501.61 89.755,498.656 91.364,496.623 L 106.751,477.19 C 108.359,475.155 111.312,474.812 113.346,476.42 L 115.507,478.131 z"
           id="path2557" />
        <path
           style="fill:#e20909;stroke:#000000;stroke-width:3;stroke-linecap:round;stroke-linejoin:round"
           d="M 233.406,477.957 C 235.037,475.897 234.689,472.906 232.629,471.273 L 205.483,449.781 C 203.423,448.15 200.431,448.5 198.799,450.559 L 198.109,451.432 C 196.478,453.494 196.826,456.486 198.885,458.116 L 226.032,479.608 C 228.092,481.239 231.084,480.891 232.715,478.833 L 233.406,477.957 z"
           id="path2561" />
        <path
           style="fill:#e20909;stroke:#000000;stroke-width:3;stroke-linecap:round;stroke-linejoin:round"
           d="M 228.892,487.94 C 230.523,485.88 230.176,482.889 228.115,481.258 L 196.8,456.468 C 194.741,454.836 191.75,455.183 190.117,457.243 L 186.338,462.019 C 184.707,464.079 185.055,467.07 187.115,468.701 L 218.429,493.492 C 220.489,495.122 223.481,494.775 225.112,492.717 L 228.892,487.94 z"
           id="path2563" />
        <path
           style="fill:#e20909;stroke:#000000;stroke-width:3;stroke-linecap:round;stroke-linejoin:round"
           d="M 216.431,499.4 C 214.801,501.461 211.808,501.808 209.748,500.177 L 182.602,478.683 C 180.542,477.054 180.193,474.062 181.824,472.001 L 182.516,471.127 C 184.146,469.068 187.14,468.721 189.198,470.352 L 216.345,491.842 C 218.406,493.476 218.754,496.465 217.122,498.526 L 216.431,499.4 z"
           id="path2565" />
      </g>
      <g
         id="g2808">
        <path
           id="path2569"
           d="M 122.765,133.988 C 110.073,120.535 96.524,114.055 95.793,114.666 C 95.062,115.275 99.022,129.764 109.996,144.651 C 120.969,159.54 380.009,484.01 403.196,511.776 L 431.709,487.967 C 408.522,460.201 135.457,147.442 122.765,133.988 z"
           style="fill:#e20909;stroke:#000000;stroke-width:3;stroke-linecap:round;stroke-linejoin:round" />
        <path
           id="path2571"
           d="M 418.318,500.911 L 403.946,516.98 C 418.769,534.728 453.565,570.292 473.898,585.624 L 491.759,570.709 C 480.301,547.968 451.515,507.386 436.693,489.635 L 418.318,500.911 z"
           style="fill:#e20909;stroke:#000000;stroke-width:3;stroke-linecap:round;stroke-linejoin:round" />
        <circle
           id="circle2573"
           r="10.741"
           cy="589.375"
           cx="492.19"
           sodipodi:cx="492.19"
           sodipodi:cy="589.375"
           sodipodi:rx="10.741"
           sodipodi:ry="10.741"
           style="fill:#e20909;stroke:#000000;stroke-width:3;stroke-linecap:round;stroke-linejoin:round"
           transform="translate(-3.8e-2,-4.5e-2)" />
        <path
           id="path2575"
           d="M 491.545,563.032 L 466.382,584.042 L 471.378,590.021 C 473.013,591.986 475.858,592.305 477.733,590.741 L 496.109,575.395 C 497.983,573.83 498.177,570.974 496.538,569.012 L 491.545,563.032 z"
           style="fill:#e20909;stroke:#000000;stroke-width:3;stroke-linecap:round;stroke-linejoin:round" />
        <path
           id="path2577"
           d="M 472.287,459.672 C 470.043,461.544 469.118,464.408 469.604,467.093 C 455.988,470.093 430.211,477.859 411.865,493.182 C 393.514,508.501 381.274,532.479 375.894,545.345 C 373.341,544.384 370.358,544.782 368.115,546.657 C 364.795,549.429 364.35,554.37 367.124,557.689 C 369.895,561.007 374.836,561.452 378.154,558.68 C 379.978,557.158 380.925,554.985 380.96,552.781 C 381.379,548.148 392.921,527.402 420.919,504.024 C 448.915,480.645 471.388,472.986 476.022,473.403 C 478.194,473.764 480.503,473.216 482.326,471.693 C 485.646,468.923 486.092,463.984 483.319,460.665 C 480.545,457.342 475.608,456.899 472.287,459.672 z"
           style="fill:#e20909;stroke:#000000;stroke-width:3;stroke-linecap:round;stroke-linejoin:round" />
        <line
           style="fill:none;stroke:#000000;stroke-width:3;stroke-linecap:round;stroke-linejoin:round"
           x1="114.348"
           y1="136.88701"
           x2="381.745"
           y2="457.11102"
           id="line2581" />
        <polyline
           style="fill:none;stroke:#000000;stroke-width:3;stroke-linecap:round;stroke-linejoin:round"
           points="      403.903,455.637 381.783,457.156 376.344,478.651     "
           id="polyline2583"
           transform="translate(-3.8e-2,-4.5e-2)" />
      </g>
    </g>
  </g>
  <g
     inkscape:groupmode="layer"
     id="layer3"
     inkscape:label="Reflet final"
     style="display:inline"
     sodipodi:insensitive="true">
    <path
       style="fill:url(#radialGradient3236);fill-opacity:1"
       d="M 1.5,1.5 L 1.5,460.3679 C 1.5,626.67854 135.81454,761.5 301.49993,761.5 C 467.1854,761.5 601.5,626.67854 601.5,460.3679 L 601.5,1.5 L 1.5,1.5 z "
       id="path2346" />
  </g>
  <g
     inkscape:groupmode="layer"
     id="layer4"
     inkscape:label="Contour final"
     style="display:inline"
     sodipodi:insensitive="true">
    <path
       style="fill:none;fill-opacity:1;stroke:#000000;stroke-width:3;stroke-miterlimit:4;stroke-dasharray:none;stroke-opacity:1"
       d="M 1.5,1.5 L 1.5,460.36794 C 1.5,626.67854 135.81454,761.5 301.49993,761.5 C 467.1854,761.5 601.5,626.67854 601.5,460.36794 L 601.5,1.5 L 1.5,1.5 z "
       id="path3239" />
  </g>
</svg>
